X: 23704
T: Lisheen, The
R: reel
M: 4/4
K: Dmajor
F2 AF G2 BG|F2 AF E2 DE|F2 AF G2 BG|FAAF D2 DE|
F2 AF G2 BG|F2 AF E4|d3 B AFDE|F2 AF D4||
d3 B AFDE|F2 AF E4|d3 B AFDE|F2 AF D4:|

